src/scalable/places/folder-important.svg

<svg xmlns="http://www.w3.org/2000/svg" xmlns:xlink="http://www.w3.org/1999/xlink" width="64" height="64"><defs><linearGradient id="a"><stop offset="0"/><stop offset="1" stop-opacity="0"/></linearGradient><linearGradient xlink:href="#a" id="b" x1="31" x2="31" y1="1005.4" y2="1003.4" gradientTransform="matrix(.92593 0 0 1 2.37 -988.4)" gradientUnits="userSpaceOnUse"/></defs><path d="M13 8c-1.108 0-2 .892-2 2H9c-.99 0-2 .892-2 2v5H6c-1.108 0-2 .892-2 2v35c0 1.108.892 2 2 2h52c1.108 0 2-.892 2-2V19c0-1.108-.892-2-2-2h-1v-5c0-1.108-1.01-2-2-2H31c0-1.108-.892-2-2-2z" style="fill:#eb0a42"/><path d="M13 8c-1.108 0-2 .892-2 2H9c-.99 0-2 .892-2 2v5h50v-5c0-1.108-1.01-2-2-2H31c0-1.108-.892-2-2-2z" opacity=".2"/><path d="M11 12c-1.108 0-2 .892-2 2v3h46v-3c0-1.108-.892-2-2-2z" opacity=".06"/><path fill="#fff" d="M11 13c-.554 0-1 .446-1 1v3h44v-3c0-.554-.446-1-1-1z"/><rect width="50" height="2" x="7" y="15" fill="url(#b)" opacity=".1" ry="0"/><rect width="50" height="5" x="7" y="56" fill="url(#d)" opacity=".1" ry="0"/><path fill="#fff" d="M6 17c-1.108 0-2 .892-2 2v1c0-1.108.892-2 2-2h52c1.108 0 2 .892 2 2v-1c0-1.108-.892-2-2-2zm7-9c-1.108 0-2 .892-2 2H9c-.99 0-2 .892-2 2v1c0-1.108 1.01-2 2-2h2c0-1.108.892-2 2-2h16c1.108 0 2 .892 2 2h24c.99 0 2 .892 2 2v-1c0-1.108-1.01-2-2-2H31c0-1.108-.892-2-2-2z" opacity=".15"/><path d="M6 56c-1.108 0-2-.892-2-2v-1c0 1.108.892 2 2 2h52c1.108 0 2-.892 2-2v1c0 1.108-.892 2-2 2z" opacity=".15"/><path d="M32 27c-1.1 0-2 1-2 2 0 1.2.9 12 2 12s2-10.8 2-12c0-1-.9-2-2-2m0 15.9a2 2 0 0 0-2 2.1 2 2 0 0 0 2 2 2 2 0 0 0 2.1-2 2 2 0 0 0-2.1-2.1" class="ColorScheme-Text" style="fill:#fff"/></svg>

<?xml version="1.0" encoding="UTF-8"?>
<svg xmlns="http://www.w3.org/2000/svg" viewBox="0 0 64 64">
 <defs>
  <linearGradient id="a">
   <stop offset="0"/>
   <stop stop-opacity="0" offset="1"/>
  </linearGradient>
  <linearGradient id="b" x1="31" x2="31" y1="1005.4" y2="1003.4" gradientTransform="matrix(.92593 0 0 1 2.37 -988.4)" gradientUnits="userSpaceOnUse" xlink:href="#a"/>
  <radialGradient id="d" cx="32" cy="1021.9" r="25" gradientTransform="matrix(-1 0 0 -.08 64 137.7)" gradientUnits="userSpaceOnUse" xlink:href="#a"/>
 </defs>
 <path style="fill:#eb0a42" d="M13 8c-1.108 0-2 .892-2 2H9c-.99 0-2 .892-2 2v5H6c-1.108 0-2 .892-2 2v35c0 1.108.892 2 2 2h52c1.108 0 2-.892 2-2V19c0-1.108-.892-2-2-2h-1v-5c0-1.108-1.01-2-2-2H31c0-1.108-.892-2-2-2z"/>
 <path d="M13 8c-1.108 0-2 .892-2 2H9c-.99 0-2 .892-2 2v5h50v-5c0-1.108-1.01-2-2-2H31c0-1.108-.892-2-2-2z" opacity=".2"/>
 <path d="M11 12c-1.108 0-2 .892-2 2v3h46v-3c0-1.108-.892-2-2-2z" opacity=".06"/>
 <path d="M11 13c-.554 0-1 .446-1 1v3h44v-3c0-.554-.446-1-1-1z" fill="#fff"/>
 <rect x="7" y="15" width="50" height="2" ry="0" fill="url(#b)" opacity=".1"/>
 <rect x="7" y="56" width="50" height="5" ry="0" fill="url(#d)" opacity=".1"/>
 <path d="M6 17c-1.108 0-2 .892-2 2v1c0-1.108.892-2 2-2h52c1.108 0 2 .892 2 2v-1c0-1.108-.892-2-2-2zM13 8c-1.108 0-2 .892-2 2H9c-.99 0-2 .892-2 2v1c0-1.108 1.01-2 2-2h2c0-1.108.892-2 2-2h16c1.108 0 2 .892 2 2h24c.99 0 2 .892 2 2v-1c0-1.108-1.01-2-2-2H31c0-1.108-.892-2-2-2z" fill="#fff" opacity=".15"/>
 <path d="M6 56c-1.108 0-2-.892-2-2v-1c0 1.108.892 2 2 2h52c1.108 0 2-.892 2-2v1c0 1.108-.892 2-2 2z" opacity=".15"/>
 <path style="fill:#ffffff" d="M 32 27 C 30.9 27 30 28 30 29 C 30 30.2 30.9 41 32 41 C 33.1 41 34 30.2 34 29 C 34 28 33.1 27 32 27 z M 32 42.9 A 2 2 0 0 0 30 45 A 2 2 0 0 0 32 47 A 2 2 0 0 0 34.1 45 A 2 2 0 0 0 32 42.9 z " class="ColorScheme-Text"/>
</svg>
